X: 35952
T: Sarah Hobbs
R: reel
M: 4/4
K: Dmixolydian
|:DEGA BG G2|cGBG AAGE|DEGA Bded|BAAG A2 GE|
DEGA BG G/G/G|cGBG A2 GE|DEGA Bded|BAAG ABcd||
eAAA cdeg|dGGF GABd|eA A/A/A cdeg|dBGB A3 A
eAAA cdeg|dGGF GABd|e3 d e3 f|gedB A2 GE:|

